!!!OTL: 697a. Wie du mir, so ich dir.
!!!ARE: Europa, Mitteleuropa, Deutschland, Hessen, Odenwald
!!!SCT: E0697
!!!TXL: @@DE
!!!YEM: Copyright 1995, estate of Helmut Schaffrath.
**kern	**text
*ICvox	*
*M3/4	*
*k[b-e-]	*
*B-:	*
!LO:TX:a:t=Langsam.	!
!LO:TX:a:t=Mel. aus dem Odenwald.	!
{8f	Lang
16gL	ge-
16aJ	.
=1	=1
4.b-	-nug
8f	hab
8d	ich
8f	ge-
=2	=2
8fL	-ſchwiegen,
8dJ	.
4f}	.
{8b-	a-
8dd	-ber
=3	=3
4.cc	nun
8a	iſt
8.cc	Al-
16g	-les
=4	=4
(4g	aus,
4f)}	.
{8f	weil
8f	du
=5	=5
4.dd	mich
8cc	ſo
8b-	ſehr
8g	ver-
=6	=6
(4f	-acht'
8d)}	.
{8f	und
8b-	mei-
8cc	-ne
=7	=7
4dd	Treu-
4dd	-heit
(16ddqq	.
8cc)	nur
8cc	aus-
=8	=8
4b-	-lachſt.
4r}	.
==	==
!!!AGN: Liebes - Lied, Leid, Klage
!!!ONB: ESAC (Essen Associative Code) Database: ERK2
!!!AMT: simple triple
!!!AIN: vox
!!!EED: Helmut Schaffrath
!!!EEV: 1.0
!!!GTL: Liebeslieder [Neuere (aus dem 18. bis 19. Jahrh.) - Liebesleid] 678-740
!!!URL-scan: https://rosdok.uni-rostock.de/mcrviewer/recordIdentifier/rosdok_ppn745177662/iview2/phys_0499.iview2?x=193.8995864193107&y=983.2713605491444&scale=0.7029437510502773&rotation=0&layout=singlePageLayout
!!!ENC: Anna Maria Matuszewska
!!!EEV: 2024/12/16
*-	*-
